X:1
T:Adoration (Woodman), 10.10.10.10.6
T:Adoration (Woodman), 10.10.10.10.6
T:Raymond Huntington Woodman, 1893
T:Public Domain Courtesy of the Cyber Hymnal™
C:Raymond Huntington Woodman, 1893
Z:Public Domain
Z:Courtesy of the Cyber Hymnal™
%%score ( 1 2 ) ( 3 4 )
L:1/8
Q:1/4=115
M:4/4
K:G
V:1 treble 
V:2 treble 
V:3 bass 
V:4 bass 
V:1
 [B,G]4 [B,D]2 [B,E]2 | (F4 E2) [CD]2 | [B,D]2 [DG]2 [DA]2 [DB]2 | B4 z2 x6 | [DA]4 [DB]2 [DA]2 | %5
 [DG]4 D2 [DE]2 | [DF]4 [^CF]2 [CE]2 | (D6 [CD]2) | ([B,G]4 D2) [^CE]2 | [CF]4 [CE]2 [CF]2 | %10
 [B,G]2 [EG]2 [EB]2 [EA]2 | (G4 F2) [CF]2 | [B,G]4 [EA]4 | B6 z2 A2 | G2 [GB]2 [=Fc]2 [Fd]2 | %15
 [Ee]4 [Ge]4 | [Gd]4 [GB]4 | [FB]6 [FA]2 x2 | [DG]8 |] %19
V:2
 x8 | C6 x2 | x8 | E6 (A4 _E2) | x8 | x4 D2 x2 | x8 | D6 x2 | x4 D2 x2 | x8 | x8 | D6 x2 | x8 | %13
 ^D4 F4 x2 | G2 x6 | x8 | x8 | x10 | x8 |] %19
V:3
 [G,,G,]4 G,2 G,2 | (A,4 G,2) [D,F,]2 | [G,,G,]2 [B,,G,]2 [A,,F,]2 [G,,G,]2 | %3
 (G,2 ^G,2 A,2 =G,2) x4 | [C,F,]4 [C,F,]2 [C,F,]2 | [B,,G,]4 [B,,G,]2 [_B,,^G,]2 | %6
 [A,,A,]4 [A,,A,]2 [A,,G,]2 | ([D,F,]4 [E,G,]2 [F,A,]2) | G,4 [G,B,]2 [G,_B,]2 | %9
 [D,A,]4 [D,G,]2 [^D,A,]2 | [E,G,]2 [D,B,]2 [C,D]2 [C,C]2 | (B,4 A,2) [^D,A,]2 | [E,G,]4 [C,E,]4 | %13
 (F,2 B,2) z2 B,2 x2 | [E,B,]2 [E,G,]2 [D,G,]2 [D,G,]2 | [C,G,]4 [^C,A,]4 | [D,B,]4 [D,D]4 | %17
 D6 z2 C2 | [G,B,]8 |] %19
V:4
 x4 G,2 G,2 | D,6 x2 | x8 | C,8 x4 | x8 | x8 | x8 | x8 | G,4 x4 | x8 | x8 | E,6 x2 | x8 | %13
 B,,4 ^D,4 x2 | x8 | x8 | x8 | D,4 D,4 x2 | x8 |] %19

